X: 1646
T: Sabâ Seyir
C: Şefik Gürmeriç
O: Turkey
F: http://compmusic.upf.edu/node/140
N: saba--seyir--sofyan--1--sefik_gurmeric
N: makam= saba
N: form= seyir
N: usul= sofyan = 4/4
M: 4/4
L: 1/16
K: C _2/4B _3/4d  
Q: 1/4=60
%%MIDI tuningsystem comma53
A4 A2G2 A4 B4  | c2d4dc cBAB c4  | z4 c2d2 e2f2 g2_7/8a2  | 
w:   |   |   | 
g3f e2g2 f8  | z2_7/8a2 g2f2 f2e2 e2d2  | \
w:   |   | 
d2c2 B2dc c8  | z4 c2d2 c4 d2e2  | 
w:   |   | 
d2c2 c2d2 c2BA B2c2  | B4 d3c B4 d4  | \
w:   |   | 
c3B A2c2 B3A G2A2  | 
w:   | 
G4 A2B2 c2d2 d2c2  | c3B cBBA A8  | |


